X:103
T:Soldier's Joy
C:Traditional - Arr. Tim O'Brien
M:4/4
L:1/8
Q:1/8=460
K:D
dB|:AFDF AFDF|AFAB d2dB|AFDF AFDF|GFEF E2FG|
AFDF AFDF|AFAB d2de|fafd egec|1 dcde d2dB:|2 dcde d2ag |
|:fefg a2gf|edef g2ag|fefg a2gf|edcB A2ag|
fefg a2gf|edef g2ag|fafd egec|1 dcde d2ag:|2 dcde d2dB|
|AGFE DEFG|AFAB d2dB|AGFE DEFG|AFEF E2dB|
AGFE DEFG|AFAB d2de|fafd egec|dcde d4|
